X:60
T:Coln McBean’s Reel. 2voices. Dix.60
M:C
L:1/8
Q:1/4=120
S:Anon. MS dated 1811, from Dixon collection, Holton le Moor, Lincs.
R:reel
N:Repeat signs added at start
O:England;Lincolnshire;Holton le Moor
Z:vmp.R.Greig 2012 <http://www.village-music-project.org.uk>
K:Gm
[V:1]|:d/c/|(B/c/d) Gd BGdG|(A/B/c) Fc AFcA|(B/c/d) Gd BGdB|D ^f2ag2G:|!
[V:2]|:z|[G,2G,,2][G,2G,,2][G,2G,,2][G,2G,,2]|[F,2F,,2][F,2F,,2][F,2F,,2][F,2F,,2]|[G,2G,,2][G,2G,,2][G,2G,,2][G,2G,,2]|[D,2D,,2][D,2D,,2][G,2G,,2][G,G,,]:|!
[V:1]F|Bdf2f>gfe|c2c/d/c/B/ ABcA|Gg2^f g^fga|gba^fg2>a2|!
[V:2]z|[B,2B,,2][B,2B,,2][B,2B,,2][B,2B,,2]|[A,2A,,2][A,2A,,2][F,2F,,2][F,2F,,2]|[G,2G,,2][G,2G,,2][G,2G,,2][B,2B,,2]|[G,2G,,2][D,2D,,2][G,2G,,2][F,2F,,2]|!
[V:1]b2fdB2Bd|c2cB ABcG|Gg2^f gdde|dcBAG2G||
[V:2][B,2B,,2][B,2B,,2][B,2B,,2][B,2B,,2]|[A,2A,,2][A,2A,,2][F,2F,,2][F,2F,,2]|[G,2G,,2][G,2G,,2][G,2G,,2][G,2G,,2]|D,2D,2[G,2G,,2]z||

